img/svg/icon_enter.svg

<svg width="12" height="19" viewBox="0 0 12 19" fill="none" xmlns="http://www.w3.org/2000/svg">
<path d="M5 16C6.06922 16.5062 6.25623 17.8468 6 18C5.56139 18.0418 5.18811 17.9474 5 18L0 13L5 8L5.3263 7.99585C5.59279 7.99447 5.91058 7.99585 6 8C6.66518 8.78971 6.13613 9.43494 5 10L3 12H10V1C9.99608 0.579773 10.4447 0.133077 11 0C11.5514 0.133077 12 0.579773 12 1V13C12 14.0423 10.9664 14.0423 11 14H3L5 16Z" fill="white"/>
</svg>

<svg width="12" height="19" fill="none" xmlns="http://www.w3.org/2000/svg"><path d="M5 16c1.07.506 1.256 1.847 1 2-.439.042-.812-.053-1 0l-5-5 5-5 .326-.004c.267-.002.585 0 .674.004.665.79.136 1.435-1 2l-2 2h7V1c-.004-.42.445-.867 1-1 .551.133 1 .58 1 1v12c0 1.042-1.034 1.042-1 1H3l2 2z" fill="#fff"/></svg>
